public/images/silvercar.svg

<?xml version="1.0" encoding="UTF-8"?>
<svg width="422px" height="62px" viewBox="0 0 422 62" version="1.1" xmlns="http://www.w3.org/2000/svg" xmlns:xlink="http://www.w3.org/1999/xlink">
    <!-- Generator: Sketch 51.2 (57519) - http://www.bohemiancoding.com/sketch -->
    <title>Silvercar.by.audi</title>
    <desc>Created with Sketch.</desc>
    <defs>
        <polygon id="path-1" points="0 47 421.669 47 421.669 0.977 0 0.977"></polygon>
    </defs>
    <g id="Silvercar.by.audi" stroke="none" stroke-width="1" fill="none" fill-rule="evenodd">
        <g id="Group-19" transform="translate(0.000000, 14.000000)">
            <polygon id="Fill-1" fill="#020202" points="47.864 1.644 47.864 40.873 66.93 40.873 69.945 34.771 54.554 34.771 54.554 1.644"></polygon>
            <polygon id="Fill-2" fill="#020202" points="93.8371 1.644 82.8671 27.76 71.8411 1.644 64.1871 1.644 82.3301 41.411 83.1871 41.411 101.2761 1.644"></polygon>
            <g id="Group-18" transform="translate(0.000000, 0.023000)">
                <path d="M14.0261,18.1044 C9.0701,15.9644 7.0861,14.4134 6.9851,11.7894 C6.8821,9.1664 8.7191,6.9184 12.8431,6.9184 C15.0871,6.9184 17.6671,7.8624 19.7051,9.0184 L22.3831,3.5984 C20.0081,2.1464 16.3931,0.9774 12.7711,0.9774 C4.5831,0.9774 0.0791,6.2784 0.3001,11.9504 C0.4831,16.6594 3.0821,20.1914 10.0431,23.0834 C16.3551,25.7044 17.5991,27.4154 17.7041,30.1464 C17.8101,32.8734 16.0841,35.2824 11.9631,35.2824 C8.9851,35.2824 5.6691,34.1944 2.7361,32.3914 L0.0001,37.9274 C3.4431,40.0244 7.7431,41.4904 11.9911,41.4904 C20.0711,41.4904 24.7301,36.0844 24.4851,29.7724 C24.2851,24.6334 21.9171,21.4764 14.0261,18.1044" id="Fill-3" fill="#020202"></path>
                <mask id="mask-2" fill="white">
                    <use xlink:href="#path-1"></use>
                </mask>
                <g id="Clip-6"></g>
                <polygon id="Fill-5" fill="#020202" mask="url(#mask-2)" points="31.762 40.85 38.453 40.85 38.453 1.621 31.762 1.621"></polygon>
                <polygon id="Fill-7" fill="#020202" mask="url(#mask-2)" points="106.7267 1.621 106.7267 40.85 130.6517 40.85 130.6517 34.748 113.4177 34.748 113.4177 23.886 124.0317 23.886 126.9397 17.998 113.4177 17.998 113.4177 7.723 130.6517 7.723 130.6517 1.621"></polygon>
                <path d="M157.9387,25.0594 C162.8087,22.9204 165.5927,18.8014 165.5927,13.7134 C165.5927,6.7584 160.6677,1.3534 149.5367,1.3534 C145.5767,1.3534 142.3117,1.6214 139.2097,1.9974 L139.2097,40.8504 L145.8987,40.8504 L145.8987,26.6664 C147.1807,26.7204 148.5197,26.7734 149.8047,26.7734 C150.5557,26.7734 151.1967,26.7734 151.8917,26.7204 L160.4537,40.8504 L168.2137,40.8504 L157.9387,25.0594 Z M149.7507,21.2624 C148.4657,21.2624 147.1287,21.2054 145.8987,21.0484 L145.8987,7.6684 C147.2357,7.4004 148.7877,7.3474 150.3937,7.3474 C155.5307,7.3474 158.5277,10.0784 158.5277,14.0374 C158.5277,18.5334 155.5867,21.2624 149.7507,21.2624 Z" id="Fill-8" fill="#020202" mask="url(#mask-2)"></path>
                <path d="M269.0368,25.0594 C273.9058,22.9204 276.6868,18.8014 276.6868,13.7134 C276.6868,6.7584 271.7658,1.3534 260.6348,1.3534 C256.6748,1.3534 253.4088,1.6214 250.3058,1.9974 L250.3058,40.8504 L256.9948,40.8504 L256.9948,26.6664 C258.2788,26.7204 259.6168,26.7734 260.9008,26.7734 C261.6498,26.7734 262.2928,26.7734 262.9878,26.7204 L271.5518,40.8504 L279.3118,40.8504 L269.0368,25.0594 Z M260.8488,21.2624 C259.5628,21.2624 258.2248,21.2054 256.9948,21.0484 L256.9948,7.6684 C258.3328,7.4004 259.8858,7.3474 261.4898,7.3474 C266.6288,7.3474 269.6258,10.0784 269.6258,14.0374 C269.6258,18.5334 266.6808,21.2624 260.8488,21.2624 Z" id="Fill-9" fill="#020202" mask="url(#mask-2)"></path>
                <path d="M225.8561,1.0858 L207.7671,40.8508 L214.6691,40.8508 L218.4711,31.8598 L233.9891,31.8598 L237.7931,40.8508 L244.8541,40.8508 L226.8201,1.0858 L225.8561,1.0858 Z M226.2301,13.4498 L231.7961,26.5608 L220.6651,26.5608 L226.2301,13.4498 Z" id="Fill-10" fill="#020202" mask="url(#mask-2)"></path>
                <path d="M192.9689,7.2401 C196.4469,7.2401 200.2999,8.4711 203.4039,10.2371 L205.7049,4.5631 C202.3889,2.5331 197.9449,0.9771 193.0759,0.9771 C180.7659,0.9771 171.9369,9.6471 171.9369,21.2621 C171.9369,32.9271 180.6569,41.4911 193.0759,41.4911 C195.8609,41.4911 198.5759,40.9651 201.0019,40.1261 L204.6959,31.8821 C202.8169,33.0941 200.0219,34.1451 198.5149,34.5451 C196.7749,35.0051 194.7599,35.2291 193.1279,35.2291 C184.5109,35.2291 179.1069,29.5071 179.1069,21.2621 C179.1069,12.9671 184.3529,7.2401 192.9689,7.2401" id="Fill-11" fill="#020202" mask="url(#mask-2)"></path>
                <path d="M303.1794,36.9227 C303.5324,37.1077 303.8844,37.2677 304.2374,37.4017 C304.5894,37.5357 304.9574,37.6487 305.3414,37.7387 C305.7254,37.8287 306.1294,37.8967 306.5554,37.9407 C306.9804,37.9847 307.4444,38.0067 307.9474,38.0067 C308.6654,38.0067 309.3004,37.9147 309.8514,37.7327 C310.4024,37.5497 310.8644,37.2837 311.2374,36.9357 C311.6094,36.5877 311.8904,36.1597 312.0794,35.6527 C312.2694,35.1457 312.3644,34.5667 312.3644,33.9137 C312.3644,33.2657 312.2694,32.6897 312.0794,32.1847 C311.8904,31.6797 311.6094,31.2547 311.2374,30.9077 C310.8644,30.5627 310.4024,30.2997 309.8514,30.1207 C309.3004,29.9437 308.6654,29.8537 307.9474,29.8537 C307.4444,29.8537 306.9804,29.8747 306.5554,29.9157 C306.1294,29.9577 305.7254,30.0237 305.3414,30.1107 C304.9574,30.1997 304.5894,30.3127 304.2374,30.4487 C303.8844,30.5857 303.5324,30.7487 303.1794,30.9387 L303.1794,36.9227 Z M298.9274,40.8507 L298.9274,21.2367 L303.1794,21.2367 L303.1794,28.3397 C303.5324,28.0617 303.9164,27.8107 304.3334,27.5857 C304.7494,27.3597 305.1964,27.1697 305.6724,27.0137 C306.1484,26.8577 306.6564,26.7357 307.1964,26.6497 C307.7364,26.5637 308.3044,26.5207 308.8994,26.5207 C310.1244,26.5207 311.2204,26.6867 312.1854,27.0167 C313.1514,27.3477 313.9674,27.8227 314.6354,28.4447 C315.3034,29.0667 315.8134,29.8247 316.1664,30.7197 C316.5194,31.6147 316.6954,32.6267 316.6954,33.7547 C316.6954,34.8927 316.5134,35.9237 316.1504,36.8497 C315.7854,37.7757 315.2594,38.5687 314.5694,39.2267 C313.8794,39.8857 313.0344,40.3947 312.0364,40.7507 C311.0384,41.1087 309.9024,41.2867 308.6274,41.2867 C308.0244,41.2867 307.4444,41.2457 306.8894,41.1637 C306.3334,41.0827 305.8114,40.9637 305.3224,40.8077 C304.8324,40.6517 304.3804,40.4627 303.9664,40.2417 C303.5514,40.0217 303.1814,39.7727 302.8554,39.4947 L302.2864,40.8507 L298.9274,40.8507 Z" id="Fill-12" fill="#020202" mask="url(#mask-2)"></path>
                <path d="M318.1833,43.4491 C318.4433,43.5061 318.7463,43.5531 319.0953,43.5881 C319.4433,43.6231 319.8273,43.6401 320.2463,43.6401 C320.5673,43.6401 320.8983,43.6241 321.2373,43.5911 C321.5763,43.5581 321.9023,43.5031 322.2153,43.4261 C322.5283,43.3481 322.8293,43.2461 323.1183,43.1181 C323.4063,42.9901 323.6753,42.8331 323.9243,42.6451 C324.1733,42.4581 324.4033,42.2361 324.6153,41.9811 C324.8273,41.7251 325.0113,41.4291 325.1703,41.0951 L325.3093,40.8241 L318.2953,26.9571 L322.8983,26.9571 L326.6843,34.9191 C326.8473,35.2591 327.0053,35.5931 327.1603,35.9211 C327.3143,36.2491 327.4723,36.5831 327.6353,36.9231 C327.7893,36.5961 327.9463,36.2661 328.1023,35.9331 C328.2583,35.6011 328.4163,35.2671 328.5763,34.9311 L332.3543,26.9571 L336.7643,26.9571 L329.5343,41.2871 C329.1813,41.9781 328.8213,42.5911 328.4543,43.1221 C328.0853,43.6531 327.6983,44.1221 327.2893,44.5301 C326.8823,44.9371 326.4553,45.2881 326.0103,45.5821 C325.5653,45.8751 325.0893,46.1251 324.5823,46.3321 C324.0763,46.5391 323.4933,46.7021 322.8333,46.8211 C322.1753,46.9401 321.4473,47.0001 320.6493,47.0001 C320.4723,47.0001 320.2753,46.9931 320.0573,46.9801 C319.8393,46.9671 319.6033,46.9411 319.3503,46.9041 C319.0963,46.8661 318.8633,46.8171 318.6493,46.7551 C318.4353,46.6931 318.2803,46.6381 318.1833,46.5901 L318.1833,43.4491 Z" id="Fill-13" fill="#020202" mask="url(#mask-2)"></path>
                <path d="M360.3552,28.5243 C360.0952,28.0083 359.8362,27.5003 359.5812,26.9973 C359.3252,26.4943 359.0702,25.9833 358.8142,25.4623 C358.5532,25.9833 358.2952,26.4993 358.0412,27.0103 C357.7852,27.5213 357.5272,28.0353 357.2672,28.5503 L354.8342,33.4043 L362.7962,33.4043 L360.3552,28.5243 Z M366.5072,40.8503 L364.3902,36.7903 L353.2092,36.7903 L351.1202,40.8503 L346.2732,40.8503 L356.5662,21.2373 L361.1162,21.2373 L371.4072,40.8503 L366.5072,40.8503 Z" id="Fill-14" fill="#020202" mask="url(#mask-2)"></path>
                <path d="M386.5036,40.8505 L386.2126,39.3355 C385.8996,39.6225 385.5356,39.8815 385.1216,40.1135 C384.7076,40.3445 384.2576,40.5445 383.7736,40.7145 C383.2876,40.8845 382.7746,41.0185 382.2326,41.1185 C381.6906,41.2175 381.1396,41.2735 380.5786,41.2875 C379.9796,41.2875 379.3946,41.2485 378.8236,41.1745 C378.2526,41.0995 377.7136,40.9715 377.2066,40.7905 C376.6996,40.6105 376.2326,40.3695 375.8046,40.0665 C375.3776,39.7645 375.0106,39.3865 374.7036,38.9325 C374.3976,38.4785 374.1576,37.9385 373.9856,37.3125 C373.8146,36.6865 373.7286,35.9615 373.7286,35.1365 L373.7286,26.9565 L377.9806,26.9565 L377.9806,34.5945 C377.9806,35.1765 378.0486,35.6835 378.1856,36.1165 C378.3216,36.5475 378.5366,36.9065 378.8296,37.1905 C379.1226,37.4745 379.4986,37.6865 379.9576,37.8255 C380.4156,37.9635 380.9676,38.0335 381.6106,38.0335 C382.0426,38.0335 382.4526,38.0075 382.8406,37.9565 C383.2286,37.9065 383.6006,37.8325 383.9546,37.7355 C384.3096,37.6385 384.6516,37.5175 384.9826,37.3715 C385.3146,37.2265 385.6426,37.0595 385.9686,36.8695 L385.9686,26.9565 L390.2206,26.9565 L390.2206,40.8505 L386.5036,40.8505 Z" id="Fill-15" fill="#020202" mask="url(#mask-2)"></path>
                <path d="M407.8561,30.8846 C407.5031,30.6996 407.1511,30.5396 406.7971,30.4056 C406.4451,30.2716 406.0771,30.1586 405.6941,30.0686 C405.3101,29.9786 404.9061,29.9106 404.4801,29.8666 C404.0541,29.8226 403.5901,29.8006 403.0881,29.8006 C402.3701,29.8006 401.7361,29.8926 401.1871,30.0746 C400.6381,30.2576 400.1771,30.5236 399.8051,30.8716 C399.4321,31.2206 399.1521,31.6476 398.9621,32.1556 C398.7721,32.6616 398.6771,33.2386 398.6771,33.8876 C398.6771,34.5396 398.7721,35.1176 398.9621,35.6226 C399.1521,36.1276 399.4321,36.5536 399.8051,36.8996 C400.1771,37.2446 400.6381,37.5076 401.1871,37.6866 C401.7361,37.8646 402.3701,37.9536 403.0881,37.9536 C403.5901,37.9536 404.0541,37.9336 404.4801,37.8916 C404.9061,37.8496 405.3101,37.7836 405.6941,37.6966 C406.0771,37.6086 406.4451,37.4956 406.7971,37.3596 C407.1511,37.2226 407.5031,37.0596 407.8561,36.8686 L407.8561,30.8846 Z M408.3911,40.8506 L408.1001,39.2766 C407.7741,39.5756 407.3951,39.8496 406.9631,40.0966 C406.5311,40.3436 406.0631,40.5546 405.5581,40.7316 C405.0531,40.9066 404.5211,41.0436 403.9611,41.1416 C403.4011,41.2386 402.8311,41.2866 402.2491,41.2866 C401.0091,41.2866 399.9011,41.1156 398.9221,40.7746 C397.9441,40.4326 397.1151,39.9436 396.4361,39.3066 C395.7571,38.6686 395.2381,37.8936 394.8781,36.9786 C394.5191,36.0646 394.3391,35.0326 394.3391,33.8876 C394.3391,32.7456 394.5231,31.7196 394.8881,30.8096 C395.2541,29.8996 395.7881,29.1256 396.4891,28.4906 C397.1901,27.8566 398.0501,27.3686 399.0711,27.0306 C400.0911,26.6906 401.2581,26.5206 402.5731,26.5206 C403.0881,26.5206 403.5941,26.5516 404.0901,26.6136 C404.5851,26.6756 405.0601,26.7646 405.5111,26.8806 C405.9631,26.9976 406.3881,27.1406 406.7851,27.3076 C407.1811,27.4756 407.5391,27.6646 407.8561,27.8766 L407.8561,21.2376 L412.1081,21.2376 L412.1081,40.8506 L408.3911,40.8506 Z" id="Fill-16" fill="#020202" mask="url(#mask-2)"></path>
                <path d="M417.418,40.851 L421.67,40.851 L421.67,26.957 L417.418,26.957 L417.418,40.851 Z M417.418,24.927 L421.67,24.927 L421.67,21.237 L417.418,21.237 L417.418,24.927 Z" id="Fill-17" fill="#020202" mask="url(#mask-2)"></path>
            </g>
        </g>
    </g>
</svg>

<svg width="422" height="62" xmlns="http://www.w3.org/2000/svg" xmlns:xlink="http://www.w3.org/1999/xlink"><defs><path id="a" d="M0 47h421.669V.977H0z"/></defs><g fill="none" fill-rule="evenodd"><path fill="#020202" d="M47.864 15.644v39.229H66.93l3.015-6.102H54.554V15.644zM93.837 15.644L82.867 41.76 71.841 15.644h-7.654L82.33 55.411h.857l18.09-39.767z"/><g transform="translate(0 14.023)"><path d="M14.026 18.104c-4.956-2.14-6.94-3.69-7.04-6.315-.104-2.623 1.733-4.87 5.857-4.87 2.244 0 4.824.943 6.862 2.1l2.678-5.42C20.008 2.145 16.393.976 12.771.976 4.583.977.08 6.278.301 11.95c.182 4.71 2.781 8.241 9.742 11.133 6.312 2.621 7.556 4.332 7.661 7.063.106 2.727-1.62 5.136-5.74 5.136-2.979 0-6.295-1.088-9.228-2.89L0 37.926c3.443 2.097 7.743 3.563 11.991 3.563 8.08 0 12.74-5.406 12.494-11.718-.2-5.139-2.568-8.296-10.459-11.668" fill="#020202"/><mask id="b" fill="#fff"><use xlink:href="#a"/></mask><path fill="#020202" mask="url(#b)" d="M31.762 40.85h6.691V1.621h-6.691zM106.727 1.621V40.85h23.925v-6.102h-17.234V23.886h10.614l2.908-5.888h-13.522V7.723h17.234V1.621zM157.939 25.06c4.87-2.14 7.654-6.259 7.654-11.347 0-6.955-4.925-12.36-16.056-12.36-3.96 0-7.225.268-10.327.644V40.85h6.689V26.666a94.15 94.15 0 0 0 3.906.107c.75 0 1.392 0 2.087-.053l8.562 14.13h7.76l-10.275-15.79zm-8.188-3.798c-1.285 0-2.622-.057-3.852-.214V7.668c1.337-.268 2.889-.32 4.495-.32 5.137 0 8.134 2.73 8.134 6.69 0 4.495-2.941 7.224-8.777 7.224zM269.037 25.06c4.869-2.14 7.65-6.259 7.65-11.347 0-6.955-4.921-12.36-16.052-12.36-3.96 0-7.226.268-10.33.644V40.85h6.69V26.666c1.284.054 2.622.107 3.906.107.749 0 1.392 0 2.087-.053l8.564 14.13h7.76l-10.275-15.79zm-8.188-3.798c-1.286 0-2.624-.057-3.854-.214V7.668c1.338-.268 2.89-.32 4.495-.32 5.139 0 8.136 2.73 8.136 6.69 0 4.495-2.945 7.224-8.777 7.224zM225.856 1.086L207.767 40.85h6.902l3.802-8.991h15.518l3.804 8.99h7.061L226.82 1.087h-.964zm.374 12.364l5.566 13.11h-11.13l5.564-13.11zM192.969 7.24c3.478 0 7.33 1.231 10.435 2.997l2.3-5.674c-3.315-2.03-7.76-3.586-12.628-3.586-12.31 0-21.14 8.67-21.14 20.285 0 11.665 8.72 20.23 21.14 20.23 2.785 0 5.5-.527 7.926-1.366l3.694-8.244c-1.88 1.212-4.674 2.263-6.181 2.663-1.74.46-3.755.684-5.387.684-8.617 0-14.021-5.722-14.021-13.967 0-8.295 5.246-14.022 13.862-14.022M303.18 36.923c.352.185.704.345 1.057.479.352.134.72.247 1.104.337.384.09.788.158 1.214.202.425.044.89.066 1.392.066.718 0 1.353-.092 1.904-.274a3.716 3.716 0 0 0 1.386-.797c.372-.348.653-.776.842-1.283.19-.507.285-1.086.285-1.74 0-.647-.095-1.223-.285-1.728a3.297 3.297 0 0 0-.842-1.277 3.685 3.685 0 0 0-1.386-.787c-.55-.177-1.186-.267-1.904-.267-.503 0-.967.02-1.392.062-.426.042-.83.108-1.214.195a8.191 8.191 0 0 0-1.104.338 9.43 9.43 0 0 0-1.058.49v5.984zm-4.253 3.928V21.237h4.252v7.103a8.05 8.05 0 0 1 2.493-1.326 9.876 9.876 0 0 1 1.524-.364c.54-.086 1.108-.13 1.703-.13 1.225 0 2.321.167 3.286.497.966.33 1.782.806 2.45 1.428a6.134 6.134 0 0 1 1.531 2.275c.353.895.53 1.907.53 3.035 0 1.138-.183 2.169-.546 3.095a6.56 6.56 0 0 1-1.58 2.377c-.69.659-1.536 1.168-2.534 1.524-.998.358-2.134.536-3.409.536-.603 0-1.183-.041-1.738-.123a9.795 9.795 0 0 1-1.567-.356 8.075 8.075 0 0 1-1.356-.566 6.124 6.124 0 0 1-1.11-.747l-.57 1.356h-3.359zM318.183 43.45c.26.056.563.103.912.138a11.577 11.577 0 0 0 2.142.003 6.88 6.88 0 0 0 .978-.165 5.52 5.52 0 0 0 .903-.308 4.086 4.086 0 0 0 1.497-1.137c.212-.256.396-.552.555-.886l.14-.27-7.015-13.868h4.603l3.786 7.962c.163.34.321.674.476 1.002.154.328.312.662.475 1.002l.467-.99.474-1.002 3.778-7.974h4.41l-7.23 14.33a16.194 16.194 0 0 1-1.08 1.835c-.369.531-.756 1-1.165 1.408a8.223 8.223 0 0 1-1.279 1.052 8.281 8.281 0 0 1-1.428.75 8.711 8.711 0 0 1-1.749.49 12.31 12.31 0 0 1-2.776.158 8.367 8.367 0 0 1-.707-.076 5.384 5.384 0 0 1-.7-.149 3.06 3.06 0 0 1-.467-.165v-3.14zM360.355 28.524c-.26-.516-.519-1.024-.774-1.527-.256-.503-.51-1.014-.767-1.535-.26.521-.519 1.037-.773 1.548a557.02 557.02 0 0 1-.774 1.54l-2.433 4.854h7.962l-2.44-4.88zm6.152 12.326l-2.117-4.06h-11.18l-2.09 4.06h-4.847l10.293-19.613h4.55l10.291 19.613h-4.9zM386.504 40.85l-.291-1.514a5.802 5.802 0 0 1-1.091.778 8.634 8.634 0 0 1-1.348.6c-.486.17-1 .305-1.541.404a10.67 10.67 0 0 1-1.654.17c-.6 0-1.184-.04-1.755-.113a7.828 7.828 0 0 1-1.617-.384 5.73 5.73 0 0 1-1.402-.724 4.373 4.373 0 0 1-1.101-1.135 5.471 5.471 0 0 1-.718-1.62c-.171-.625-.257-1.35-.257-2.175v-8.18h4.252v7.637c0 .582.068 1.09.205 1.523.136.43.35.79.644 1.074.293.283.669.495 1.128.634.458.139 1.01.208 1.653.208.432 0 .842-.026 1.23-.077.388-.05.76-.123 1.114-.22a7.324 7.324 0 0 0 1.028-.364c.332-.145.66-.313.986-.502v-9.913h4.252V40.85h-3.717zM407.856 30.885a9.613 9.613 0 0 0-1.059-.48 8.68 8.68 0 0 0-1.103-.336 9.665 9.665 0 0 0-1.214-.202c-.426-.044-.89-.066-1.392-.066-.718 0-1.352.092-1.9.274a3.706 3.706 0 0 0-1.383.797 3.318 3.318 0 0 0-.843 1.284c-.19.506-.285 1.083-.285 1.732 0 .652.095 1.23.285 1.735.19.505.47.93.843 1.277.372.345.833.608 1.382.787.55.178 1.183.267 1.901.267.502 0 .966-.02 1.392-.062.426-.042.83-.108 1.214-.195a8.077 8.077 0 0 0 1.103-.337 9.2 9.2 0 0 0 1.06-.491v-5.984zm.535 9.966l-.29-1.574a6.302 6.302 0 0 1-1.138.82c-.432.247-.9.458-1.405.635-.505.175-1.037.312-1.597.41-.56.097-1.13.145-1.712.145-1.24 0-2.348-.171-3.327-.512-.978-.342-1.807-.831-2.486-1.468a6.317 6.317 0 0 1-1.558-2.328c-.359-.914-.539-1.946-.539-3.091 0-1.142.184-2.168.55-3.078.365-.91.9-1.684 1.6-2.32.701-.633 1.561-1.121 2.582-1.46 1.02-.34 2.187-.51 3.502-.51.515 0 1.021.032 1.517.094.495.062.97.15 1.421.267.452.117.877.26 1.274.427.396.168.754.357 1.071.569v-6.64h4.252v19.614h-3.717zM417.418 40.851h4.252V26.957h-4.252v13.894zm0-15.924h4.252v-3.69h-4.252v3.69z"/></g></g></svg>
